images/sq.svg

<svg viewBox="0 0 64 64" xmlns="http://www.w3.org/2000/svg"><path d="m54.5 0h-45a9.5 9.5 0 0 0 -9.5 9.5v45a9.5 9.5 0 0 0 9.5 9.5h45a9.5 9.5 0 0 0 9.5-9.5v-45a9.5 9.5 0 0 0 -9.5-9.5zm-9.5 45h-26v-26h26z" fill="#ed1c24"/></svg>

<svg xmlns="http://www.w3.org/2000/svg" viewBox="0 0 64 64"><defs><style>.cls-1{fill:#ed1c24;}</style></defs><title>sq</title><g id="Layer_2" data-name="Layer 2"><g id="Layer_1-2" data-name="Layer 1"><path class="cls-1" d="M54.5,0H9.5A9.5,9.5,0,0,0,0,9.5v45A9.5,9.5,0,0,0,9.5,64h45A9.5,9.5,0,0,0,64,54.5V9.5A9.5,9.5,0,0,0,54.5,0ZM45,45H19V19H45Z"/></g></g></svg>
